X:48
T:BNYJEAN2- Bonny Jean
S:Village Opera, 1729
Q:1/4=120
L:1/4
M:C|
K:F
A/G/|F(F/G/4A/4)C3/2 C/|(F/E/) (F/G/) (F/4G/4A/) (G/F/)|\
B(B/4c/4d/) (c/A/) (G/F/)|G(G/4A/4B/)D3/2A/|F(F/G/4A/4)C3/2 C/|\
(D/E/) F/F/(fe/d/)|c/f/ d/c/ (B/4A/4G/) d/c/|A(G/F/)F3/2||\
c/|ff/g/cd/e/|f/c/f/g/ a3/2 g/|ff/g/cd/c/|\
(c3/4d/4 c/)(B/4A/4)G3/2F/|F(F/G/4A/4)C3/2 C/|(D/E/)F(fe/) d/|\
(c/f/) (d/c/) (B/A/4G/4) d/c/|(B/A/) (G/F/)F3/2|]

